X:1
T:Att angöra en brygga
C:Lars Färnlöf
C:arr: Anders Widestrand
K:F
Q:1/4=120
M:3/4
V:1 name="Part 1, Bb" snm="1 Bb"
L:1/4
%%MIDI transpose -2
!mf!(e d _d | c A F | E D "rit."_D | C) c2 | [P:A]"a tempo" (A3- | A2 B/c/ | d _d c | 
B2) (A | c B3/2 D/ | B A d | A G2) | (B A ^C | G F E |  F2) (G/^G/ | 
A c d | e2 _e | d c =B | _B A) (e | D c B | ^C A G) | [P:B] (A3- | 
A2 B/c/ | d _d c | B2) (A | c B3/2 D/ | B A d | A G2) | (B A ^C | 
G F E | F2) (G/^G/ | A c d | e2 _e | d c B | A2 _A | G2 F-) |
F/E/ (F ^G) |: [P:C][K:C] A3- | A3 | A3- | A3 | A3/4c/4- c2 | A3/4c/4- c2 |  
A3/4c/4- c2 |[1 A3/4c/4- c2 :|[2 (A c ^c) || [P:D][K:F] (e d _d | c A F | E D "rit."_D | C) c2 | 
[P:E]"a tempo" (A3- | A2 B/c/ | d _d c | B2) (A | c B3/2 D/ | B A d | A G2) |
(B A ^C | G F E |  F2) (G/^G/ | A c d | e2 _e | d c "rit."B | A2) (_A | G2 F-) | !fermata!F3 |]
V:2 name="Part 2, Bb" snm="2 Bb"
M:3/4
L:1/4
%%MIDI transpose -2
!mf!A3 | F3 | (E D "rit."_D | C) _A2 | [P:A]"a tempo" z3 | z3 | z3 |
z3 | z3 | z3 | z3 | z3 | (F/E/ D2 | A, ^C F- | 
F A2- | A2) (_A | E G E | ^F2) (A | D G2 | ^C E2) | [P:B] F3 | 
E3 | (_E/^F/ B A | ^F2) (F | G G3/2 D/ | D/_E/ ^F A | A G2) | (G2 ^C | 
F/E/ D2 | ^C2) (F- | F A2- | A2 _A | G A _G | F2 E | D E F-) | F/E/ (D F) 
[P:C][K:C] |: E3 | F3 | ^F3 | =F3 | E3 | F3 | ^F3 |[1 =F3 :|[2 (G E G) ||[P:D][K:F] A3 | F3 | (E D "rit."_D | 
C) _A2 | [P:E]"a tempo" F3 | E3 | (_E/^F/ B A | ^F2) (F | G G3/2 D/ | 
D/_E/ ^F A | A G2) | (G2 ^C | F/E/ D2 | ^C2) (F- | F A2- | A2 _A | G A "rit."_G | F2) (E | D E F-) | !fermata!F3 |]
V:8 name="Part 5, B.C." snm="5 B.C."
L:1/4
M:3/4
K:Eb clef=bass
%%MIDI transpose 0
!mf! [C,C,,]3 | [C,C,,]2 G,, | F,,2 "rit."F,, | [B,,B,,,] [C,C,,] [D,D,,] | [P:A]"a tempo" [E,E,,]3 | [D,D,,]3 | [_D,_D,,]3 | 
[C,C,,]3 | [F,F,,]3 | [=E,=E,,]2 [E,E,,] | [_E,_E,,]3 | [D,D,,] G,,2 | C,2 C, | =B,,2 B,, | 
_B,,3 | =A,,2 _A,, | G,,2 G,, | [C,C,,]3 | F,, G,, A,, | B,,3 | [P:B] [E,E,,]3 | [D,D,,]3 | [_D,_D,,]3 | [C,C,,]3 | [F,F,,]3 | [=E,=E,,]2 [E,E,,] | [_E,_E,,]3 | [D,D,,] G,,2 | 
C,2 (D,/C,/) | =B,,2 B,, | _B,,3 | =A,,2 _A,, | G,,2 [C,C,,] | F,,2 [B,,B,,,] | [E,E,,]3 | 
[=A,,=A,,,]2 [D,D,,] |: [P:C][K:Bb] G,,2 G,, | G,,3 | G,,2 G,, | G,,3 | G,,2 G,, | G,,3 | 
G,,2 G,, |[1 G,,3 :|[2 G,,3 || [K:Eb][P:D] [C,C,,]3 | [C,C,,]2 G,, | F,,2 "rit."F,, | [B,,B,,,] [C,C,,] [D,D,,] | 
[P:E]"a tempo" [E,E,,]3 | [D,D,,]3 | [_D,_D,,]3 | [C,C,,]3 | [F,F,,]3 | [=E,=E,,]2 [E,E,,] | [_E,_E,,]3 | [D,D,,] G,,2 | 
C,2 (D,/C,/) | =B,,2 B,, | _B,,3 | =A,,2 _A,, | G,,2 "rit."[C,C,,] | [F,F,,]2 [B,,B,,,] | [E,E,,]2 [E,E,,]- | !fermata![E,E,,]3 |] 
